!!!COM: Beethoven, Ludwig van
!!!CDT: 1770///-1827///
!!!OTL: Piano Sonata no. 2 in A major
!!!ODT: 1794///-1795///
!!!ODE: Joseph Haydn
!!!OMD: Allegro vivace
!!!OPS: 2
!!!ONM: 2
!!!OMV: 1
!!!AGN: Sonata
**kern	**dynam	**kern	**dynam
*staff2	*staff2	*staff1	*staff1
*Ipiano	*Ipiano	*Ipiano	*Ipiano
*>[A,A1,A,A2,B,B]	*>[A,A1,A,A2,B,B]	*>[A,A1,A,A2,B,B]	*>[A,A1,A,A2,B,B]
*>norep[A,A2,B]	*>norep[A,A2,B]	*>norep[A,A2,B]	*>norep[A,A2,B]
*>A	*>A	*>A	*>A
*clefF4	*clefF4	*clefG2	*clefG2
*k[f#c#g#]	*k[f#c#g#]	*k[f#c#g#]	*k[f#c#g#]
*A:	*A:	*A:	*A:
*M2/4	*M2/4	*M2/4	*M2/4
*MM120	*MM120	*MM120	*MM120
8A`\	.	8a`\ 8aa`\	p
=1	=1	=1	=1
4E`\	.	4e`\ 4ee`\	.
8r	.	8r	.
(32E/LLL	.	(32e/LLL	.
32D/	.	32d/	.
32C#/	.	32c#/	.
32BB/JJJ	.	32B/JJJ	.
=2	=2	=2	=2
4AA/)	.	4A/)	.
8r	.	8r	.
8A`\	.	8a`\ 8aa`\	.
=3	=3	=3	=3
4F#`\	.	4f#`\ 4ff#`\	.
8r	.	8r	.
(32F#\LLL	.	(32f#/LLL	.
32E\	.	32e/	.
32D\	.	32d/	.
32C#\JJJ	.	32c#/JJJ	.
=4	=4	=4	=4
4BB/)	.	4B/)	.
8r	.	8r	.
8d`\	.	8dd`\ 8ddd`\	.
=5	=5	=5	=5
4B`\	.	4b`\ 4bb`\	.
4G#`\	.	4g#`\ 4gg#`\	.
=6	=6	=6	=6
4E`\	.	4e`/ 4ee`/	.
4D`\	.	4d`/ 4dd`/	.
=7	=7	=7	=7
4BB`\	.	4B`/ 4b`/	.
4GG#`\	.	4G#`/ 4g#`/	.
=8	=8	=8	=8
4EE`\	.	4E`/ 4e`/	.
4r	.	8r	.
.	.	(24A/LL	.
.	.	24c#/	.
.	.	24e/JJ)	.
=9	=9	=9	=9
4AA:\ 4C#:\ 4E:\ 4A:\	.	8a'\L	.
.	.	8b'\	.
4r	.	8cc#'\	.
.	.	8dd'\J	.
=10	=10	=10	=10
2r	.	8ee'\L	.
.	.	8ff#'\	.
.	.	8gg#'\	.
.	.	8aa'\J	.
=11	=11	=11	=11
*	*	*^	*
8r	.	(4.ee/	8r	.
(8E\L	.	.	8g#\L	.
8F#\	.	.	8a\	.
8G#\J	.	8dd/	8b\J	.
*	*	*v	*v	*
=12	=12	=12	=12
8A\)	.	8e/ 8cc#/)	.
(8AA/L	.	8r	.
8C#/	.	4r	.
8D/J)	.	.	.
=13	=13	=13	=13
(4.E\	.	8r	.
.	.	8G#/ 8e/L	.
.	.	8A/ (8f#/	.
8D\)	.	8B/ 8g#/J	.
=14	=14	=14	=14
(8C#/L	.	8c#/ 8a/L	.
8E/	.	8e/	.
8C#/	.	8a/	.
8AA/J	.	8cc#/J	.
=15	=15	=15	=15
*	*	*^	*
8GG#/L	.	4.ee/	8b\L	.
8EE/	.	.	8g#\	.
8FF#/	.	.	8a\	.
8GG#/J	.	8dd/	8b\J	.
=16	=16	=16	=16	=16
8AA/L	.	8cc#/L	4.e\	.
8GG#/	.	8b/	.	.
8FF#/	.	8a/	.	.
8BB/J)	.	8b/J)	8d#\	.
=17	=17	=17	=17	=17
*^	*	*	*	*
(8E/L	2EE\	.	(8g#/L	4B\	pp
8BB/	.	.	8e/	.	.
8F#/	.	.	8a/	4A\ 4d#\	.
8BB/J	.	.	8b/J	.	.
=18	=18	=18	=18	=18	=18
8E/L	2EE\	.	8g#/L	4B\	.
8BB/	.	.	8e/	.	.
8F#/	.	.	8a/	4A\ 4d#\	.
8BB/J)	.	.	8b/J)	.	.
*v	*v	*	*	*	*
*	*	*v	*v	*
=19	=19	=19	=19
4EE/ 4E/	.	4B/ 4e/ 4g#/	.
4EE/	.	4G#/ 4B/ 4e/	.
=20	=20	=20	=20
4EE/	.	4G#/ 4B/ 4e/	.
8r	.	8r	.
8A`\	.	8a`\ 8aa`\	f
=21	=21	=21	=21
4E`\	.	4e`\ 4ee`\	.
8r	.	8r	.
(32E/LLL	.	(32e/LLL	.
32D/	.	32d/	.
32C#/	.	32c#/	.
32BB/JJJ	.	32B/JJJ	.
=22	=22	=22	=22
4AA/)	.	4A/)	.
8r	.	4r	.
(24AAA/LL	.	.	.
24CC#/	.	.	.
24EE/JJ)	.	.	.
=23	=23	=23	=23
8AA'/L	.	2r	.
8BB'/	.	.	.
8C#'/	.	.	.
8D'/J	.	.	.
=24	=24	=24	=24
8E'\L	.	2r	.
8F#'\	.	.	.
8G#'\	.	.	.
8A'\J	.	.	.
=25	=25	=25	=25
(4.E\	.	8r	.
.	.	8G#/ (8e/L	p
.	.	8A/ 8f#/	.
8D\	.	8B/ 8g#/J	.
=26	=26	=26	=26
8C#\L	.	8c#/ 8a/L	.
8E\	.	8e/	.
8C#\	.	8a/	.
8AA\J	.	8cc#/J	.
=27	=27	=27	=27
*	*	*^	*
8GG#/	.	4.ee/	8b\L	.
8E\L	.	.	8g#\	.
8F#\	.	.	8a\	.
8G#\J	.	8dd/	8b\J	.
*	*	*v	*v	*
=28	=28	=28	=28
8A\L	.	4e/ 4cc#/)	.
8E\	.	.	.
8A\	.	4r	.
8c#\J)	.	.	.
=29	=29	=29	=29
*	*	*^	*
(4.e\	.	8ryy	8r	.
.	.	(8ee/L	8g#\L	p
.	.	8ff#/	8a\	.
8d\	.	8gg#/J	8b\J	.
=30	=30	=30	=30	=30
8c#\L	.	8aa/L	8cc#\	.
8G#\	.	8bb/	4ee\	.
8A\	.	8ccc#/	.	.
8F#\J)	.	8ddd/J)	8aa\	.
=31	=31	=31	=31	=31
4E`\	.	4eee`/	4ccc#\	.
4EE`/	.	4ee`/ 4gg#`/	4b\ 4dd\	.
*	*	*v	*v	*
=32	=32	=32	=32
24AA\LL	.	4cc#`\ 4ee`\ 4aa`\	f
24C#\	.	.	.
24D\JJ	.	.	.
24E\LL	.	.	.
24F#\	.	.	.
24G#\JJ	.	.	.
24A\LL	.	4r	.
24c#\	.	.	.
24d\JJ	.	.	.
24e\LL	.	.	.
24f#\	.	.	.
24g#\JJ	.	.	.
=33	=33	=33	=33
8a'\L	.	2r	.
8g#'\	.	.	.
8f#'\	.	.	.
8e'\J	.	.	.
=34	=34	=34	=34
8d'\L	.	24e/LL	f
.	.	24g#/	.
.	.	24a/JJ	.
8c#'\	.	24b\LL	.
.	.	24cc#\	.
.	.	24dd\JJ	.
8B'\	.	24ee\LL	.
.	.	24gg#\	.
.	.	24aa\JJ	.
8A'\J	.	24bb\LL	.
.	.	24ccc#\	.
.	.	24ddd\JJ	.
=35	=35	=35	=35
8G#'\L	.	8eee'\L	.
8F#'\	.	8ddd'\	.
8E'\	.	8ccc#'\	.
8D'\J	.	8bb'\J	.
=36	=36	=36	=36
*	*	*^	*
24C#\LL	.	4aa/	4r	.
24E\	.	.	.	.
24F#\JJ	.	.	.	.
24G#\LL	.	.	.	.
24A\	.	.	.	.
24B\JJ	.	.	.	.
4r	.	4r	24c#\LL	.
.	.	.	24e\	.
.	.	.	24f#\JJ	.
.	.	.	24g#\LL	.
.	.	.	24a\	.
.	.	.	24b\JJ	.
=37	=37	=37	=37	=37
2r	.	2r	8cc#'\L	.
.	.	.	8b'\	.
.	.	.	8a'\	.
.	.	.	8g#'\J	.
=38	=38	=38	=38	=38
2r	.	24r	8a'\L	.
.	.	24b/LL	.	.
.	.	24cc#/JJ	.	.
.	.	24dd#/LL	8g#'\	.
.	.	24ee/	.	.
.	.	24ee#/JJ	.	.
.	.	24ff#/LL	8f#'\	.
.	.	24dd#/	.	.
.	.	24een/JJ	.	.
.	.	24ff#/LL	8e'\J	.
.	.	24gg#/	.	.
.	.	24aa/JJ	.	.
*	*	*v	*v	*
=39	=39	=39	=39
8d#'\L	.	8bb'\L	ff
8c#'\	.	8aa'\	.
8B'\	.	8gg#'\	.
8A'\J	.	8ff#'\J	.
=40	=40	=40	=40
8G#'\L	.	8ee'\L	.
8F#'\	.	8dd#'\	.
8E'\	.	8cc#'\	.
8D#'\J	.	8b'\J	.
=41	=41	=41	=41
8C#/L	.	8a#'/L	.
8BB/	.	8g#'/	.
8AA#/	.	8f#'/	.
8FF#/J	.	8e'/J	.
=42	=42	=42	=42
*	*	*^	*
[2BB/	p	(4d#/	8d#\L	.
.	.	.	8c#\	.
.	.	4d#/	8B\	.
.	.	.	8A\J	.
*	*	*v	*v	*
*	*	*clefF4	*clefF4
=43	=43	=43	=43
*	*	*^	*
2BB/]	.	4e/	8G#\L	.
.	.	.	8F#\	.
.	.	4A#/	8E\	.
.	.	.	8F#\J	.
=44	=44	=44	=44	=44
[2BBB/	.	4B/	8D#\L	.
.	.	.	8C#\	.
.	.	4D#/	8BB\	.
.	.	.	8AA\J	.
=45	=45	=45	=45	=45
2BBB/_	.	4E/	8GG#\L	.
.	.	.	8FF#\	.
.	.	4AA#/	8EE\	.
.	.	.	8FF#\J	.
*	*	*v	*v	*
=46	=46	=46	=46
(8BBB/L]	.	4DD#/ 4BB/)	.
8DD#/	.	.	.
8FF#/	.	4r	.
8AA#/J	.	.	.
=47	=47	=47	=47
8BB\L	.	2r	.
8D#\	.	.	.
8F#\	.	.	.
8A#\J	.	.	.
*	*	*clefG2	*clefG2
=48	=48	=48	=48
8B\L	.	4r	.
8A#\	.	.	.
8B\J)	.	8r	.
8r	.	(8B/	.
=49	=49	=49	=49
2r	.	8cn/L	.
.	.	8B/	.
.	.	8f#/	.
.	.	8d#/J)	.
=50	=50	=50	=50
(8An\L	.	4r	.
8G#\	.	.	.
8A\J)	.	8r	.
8r	.	(8B/	.
=51	=51	=51	=51
2r	.	8cn/L	.
.	.	8B/	.
.	.	8f#/	.
.	.	8d#/J)	.
=52	=52	=52	=52
(8Gn\L	.	4r	.
8F#\	.	.	.
8G\J)	.	8r	.
8r	.	(8B/	.
=53	=53	=53	=53
2r	.	8cn/L	.
.	.	8B/	.
.	.	8gn/	.
.	.	8e/J)	.
=54	=54	=54	=54
*^	*	*	*
*	*^	*	*	*
4r	8r	[8D#\	.	2r	.
*	*v	*v	*	*	*
.	[4.F#\ 4.D#_	.	.	.
(8A/	.	.	.	.
8B/	.	.	.	.
*v	*v	*	*	*
=55	=55	=55	=55
2D#\_ 2F#\_) [2A\ [2cn\	.	(8d#/L	.
.	.	8f#/	.
.	.	8a/	.
.	.	8b/J	.
=56	=56	=56	=56
2D#\] 2F#\] 2A\] (2c\]	.	8ccn\L	.
.	.	8b\	.
.	.	8ddn\	.
.	.	8cc\J	.
=57	=57	=57	=57
*^	*	*	*
*	*	*	*k[f#c#]	*k[f#c#]
4B/	2D\ 2F#\	.	8b/L	.
.	.	.	8a/	.
4A/)	.	.	8gn/	.
.	.	.	8f#/J)	.
*v	*v	*	*	*
=58	=58	=58	=58
16E\ 16Gn\LL	.	4e/	.
16B\	.	.	.
16E\ 16G\	.	.	.
16B\JJ	.	.	.
16E\ 16G\LL	.	8r	.
16B\	.	.	.
16E\ 16G\	.	(8ee\	mp
16B\JJ	.	.	.
=59	=59	=59	=59
16E\ 16Gn\LL	.	8dd#\L	.
16B\	.	.	.
16E\ 16G\	.	8ee\	.
16B\JJ	.	.	.
16E\ 16G\LL	.	8ggn\	.
16B\	.	.	.
16E\ 16G\	.	8ee\J)	.
16B\JJ	.	.	.
=60	=60	=60	=60
16F#\ 16A\LL	.	(8.ee\L	.
16B\	.	.	.
16F#\ 16A\	.	.	.
16cn\JJ	.	32ff#\LL	.
.	.	32ee\JJJ)	.
16F#\ 16A\LL	.	[4dd#\	.
16c\	.	.	.
16F#\ 16A\	.	.	.
16c\JJ	.	.	.
=61	=61	=61	=61
16F#\ 16A\LL	.	(4dd#y\]	.
16cn\	.	.	.
16F#\ 16A\	.	.	.
16c\JJ	.	.	.
16F#\ 16A\LL	.	4ddn\)	.
16c\	.	.	.
16F#\ 16A\	.	.	.
16c\JJ	.	.	.
=62	=62	=62	=62
*	*	*k[f#c#g#]	*k[f#c#g#]
16Gn\ 16B\LL	.	4.dd\	.
16cn\	.	.	.
16G\ 16B\	.	.	.
16d\JJ	.	.	.
16G\ 16B\LL	.	.	.
16d\	.	.	.
16G\ 16B\	.	(8ggn\	.
16d\JJ	.	.	.
=63	=63	=63	=63
16Gn\ 16B\LL	.	8ff#\L	.
16d\	.	.	.
16G\ 16B\	.	8ggn\	.
16d\JJ	.	.	.
16G\ 16B\LL	.	8bb\	.
16d\	.	.	.
16G\ 16B\	.	8gg\J)	.
16d\JJ	.	.	.
=64	=64	=64	=64
16A\ 16cn\LL	.	(8.ggn\L	.
16d\	.	.	.
16A\ 16c\	.	.	.
16e-\JJ	.	32aa\LL	.
.	.	32gg\JJJ)	.
16A\ 16c\LL	.	[4ff#\	.
16e-\	.	.	.
16A\ 16c\	.	.	.
16e-\JJ	.	.	.
=65	=65	=65	=65
16A\ 16cn\LL	.	(4ff#\]	.
16e-\	.	.	.
16A\ 16c\	.	.	.
16e-\JJ	.	.	.
16A\ 16c\LL	.	4ffn\)	.
16e-\	.	.	.
16A\ 16c\	.	.	.
16e-\JJ	.	.	.
=66	=66	=66	=66
16B-\ 16d\LL	.	4.ffn\	.
16e-\	.	.	.
16B-\ 16d\	.	.	.
16fn\JJ	.	.	.
16B-\ 16d\LL	.	.	.
16f\	.	.	.
16B-\ 16d\	.	(8bb-\	.
16f\JJ	.	.	.
=67	=67	=67	=67
16B-\ 16d\LL	.	8aa\L	.
16fn\	.	.	.
16B-\ 16d\	.	8bb-\	.
16f\JJ	.	.	.
16B-\ 16d\LL	.	8ddd\	.
16f\	.	.	.
16B-\ 16d\	.	8bb-\J)	.
16f\JJ	.	.	.
*clefG2	*clefG2	*	*
=68	=68	=68	=68
16cn/ 16e-/LL	.	(8.bb-\L	.
16fn/	.	.	.
16c/ 16e-/	.	.	.
16f#/JJ	.	32cccn\LL	.
.	.	32bb-\JJJ)	.
16c/ 16e-/LL	.	[4aa\	.
16f#/	.	.	.
16c/ 16e-/	.	.	.
16f#/JJ	.	.	.
=69	=69	=69	=69
16c#X/ 16en/LL	.	4aa\]	.
16f#/	.	.	.
16c#/ 16e/	.	.	.
16gn/JJ	.	.	.
16c#/ 16e/LL	.	4aa\	.
16g/	.	.	.
16c#/ 16e/	.	.	.
16g/JJ	.	.	.
=70	=70	=70	=70
16d/ 16f#/LL	.	(4aa\	.
16gn/	.	.	.
16d/ 16f#/	.	.	.
16a/JJ	.	.	.
16d/ 16f#/LL	.	[4ccn\ [4cccn\)	.
16a/	.	.	.
16d/ 16f#/	.	.	.
16a/JJ	.	.	.
=71	=71	=71	=71
16d#/ 16f#/LL	.	4cc\] (4ccc\]	.
16a/	.	.	.
16d#/ 16f#/	.	.	.
16a/JJ	.	.	.
16d#/ 16f#/LL	.	4b\ 4bb\)	.
16a/	.	.	.
16d#/ 16f#/	.	.	.
16a/JJ	.	.	.
=72	=72	=72	=72
16e/ 16g#/LL	.	(4bb\	.
16a/	.	.	.
16e/ 16g#/	.	.	.
16b/JJ	.	.	.
16e/ 16g#/LL	.	[4dd\ [4ddd\)	.
16b/	.	.	.
16e/ 16g#/	.	.	.
16b/JJ	.	.	.
=73	=73	=73	=73
16e#/ 16g/LL	.	4dd\] (4ddd\]	.
16b/	.	.	.
16e#/ 16g/	.	.	.
16b/JJ	.	.	.
16e#/ 16g/LL	.	4cc#\ 4ccc#\)	.
16b/	.	.	.
16e#/ 16g/	.	.	.
16b/JJ	.	.	.
=74	=74	=74	=74
16f#/ 16a/LL	.	(4ccc#\	.
16b/	.	.	.
16f#/ 16a/	.	.	.
16b/JJ	.	.	.
16f#/ 16a/LL	.	[4ee\ [4eee\)	.
16ccn/	.	.	.
16f#/ 16a/	.	.	.
16cc/JJ	.	.	.
=75	=75	=75	=75
16f#/ 16a/LL	.	4ee\] (4eee\]	.
16ccn/	.	.	.
16f#/ 16a/	.	.	.
16cc/JJ	.	.	.
16f#/ 16a/LL	.	4dd#\ 4ddd#\)	.
16cc/	.	.	.
16f#/ 16a/	.	.	.
16cc/JJ	.	.	.
=76	=76	=76	=76
4f#/ 4a/	.	4dd#\ 4ddd#\	.
*clefF4	*clefF4	*	*
8r	.	8r	.
(32Cn/LLL	.	(32cn/LLL	ff
32BB/	.	32B/	.
32AA/	.	32A/	.
32GGn/JJJ	.	32Gn/JJJ	.
=77	=77	=77	=77
4FF#/)	.	4F#/)	.
4r	.	8r	.
.	.	8ee\ (8eee\	p
=78	=78	=78	=78
4r	.	4dd#\ 4ddd#\)	.
8r	.	8r	.
(32Cn/LLL	.	(32cn/LLL	ff
32BB/	.	32B/	.
32AA/	.	32A/	.
32GGn/JJJ	.	32Gn/JJJ	.
=79	=79	=79	=79
4FF#/)	.	4F#/)	.
4r	.	8r	.
.	.	(8eee\	pp
*clefG2	*clefG2	*	*
=80	=80	=80	=80
4r	.	4ddd#\)	.
4f#/ 4a/ 4ccn/	.	8r	.
.	.	(8eee\	.
=81	=81	=81	=81
4r	.	4ddd#\)	.
4f#/ 4a/ 4ccn/	.	8r	.
.	.	(8eee\	.
=82	=82	=82	=82
4r	.	4ddd#\)	.
4f#/ 4a/ 4ccn/	.	4r	.
=83	=83	=83	=83
2r	.	4r	.
.	.	8r	.
.	.	8bb\	.
*clefF4	*clefF4	*	*
=84	=84	=84	=84
4G#\ 4B\ 4e\	.	8r	.
.	.	24ee\LL	ff
.	.	24eee\	.
.	.	24ee\JJ	.
4r	.	24b\LL	.
.	.	24bb\	.
.	.	24b\JJ	.
.	.	24g#\LL	.
.	.	24gg#\	.
.	.	24g#\JJ	.
=85	=85	=85	=85
2r	.	24e\LL	.
.	.	24ee\	.
.	.	24e\JJ	.
.	.	24B/LL	.
.	.	24b/	.
.	.	24B/JJ	.
.	.	24G#/LL	.
.	.	24g#/	.
.	.	24G#/JJ	.
.	.	24E/LL	.
.	.	24e/	.
.	.	24E/JJ	.
*	*	*clefF4	*clefF4
=86	=86	=86	=86
2AA#/	.	2E\ 2F#\	.
=87	=87	=87	=87
2BBB/ 2AAn/	.	2D#\ 2B\	.
*	*	*clefG2	*clefG2
=88	=88	=88	=88
4EE\ 4GG#\	.	8r	.
.	.	24E/LL	.
.	.	24e/	.
.	.	24E/JJ	.
4r	.	24G#/LL	.
.	.	24g#/	.
.	.	24G#/JJ	.
.	.	24B/LL	.
.	.	24b/	.
.	.	24B/JJ	.
=89	=89	=89	=89
2r	.	24e\LL	.
.	.	24ee\	.
.	.	24e\JJ	.
.	.	24g#\LL	.
.	.	24gg#\	.
.	.	24g#\JJ	.
.	.	24b\LL	.
.	.	24bb\	.
.	.	24b\JJ	.
.	.	24ee\LL	.
.	.	24eee\	.
.	.	24ee\JJ	.
*clefG2	*clefG2	*	*
=90	=90	=90	=90
*	*	*^	*
2a#/	.	2ff#/	2ee\	.
*	*	*v	*v	*
=91	=91	=91	=91
2B/ 2an/	.	2dd#\ 2bb\	.
=92	=92	=92	=92
24e/LL	.	8ee\	.
24g#/	.	.	.
24a/JJ	.	.	.
24b\LL	.	8r	.
24cc#\	.	.	.
24dd#\JJ	.	.	.
8ee\	.	24r	.
.	.	24gg#\LL	.
.	.	24aa\JJ	.
8r	.	24bb\LL	.
.	.	24ccc#\	.
.	.	24ddd#\JJ	.
=93	=93	=93	=93
2r	.	8eee'\L	.
.	.	8ddd#'\	.
.	.	8ccc#'\	.
.	.	8bb'\J	.
*clefF4	*clefF4	*	*
=94	=94	=94	=94
*	*	*^	*
24BB\LL	.	8aa'/L	4r	.
24D#\	.	.	.	.
24E\JJ	.	.	.	.
24F#\LL	.	8gg#'/	.	.
24G#\	.	.	.	.
24A\JJ	.	.	.	.
24B\LL	.	8ff#'/	8r	.
24d#X\	.	.	.	.
24e\JJ	.	.	.	.
8ry	.	8ee'/J	24f#\LL	.
.	.	.	24g#\	.
.	.	.	24a\JJ	.
=95	=95	=95	=95	=95
2ry	.	8dd#/	8b'\L	.
.	.	8r	8a'\	.
.	.	4r	8g#'\	.
.	.	.	8f#'\J	.
*	*	*v	*v	*
=96	=96	=96	=96
24EE/LL	.	4e/	.
24GG#/	.	.	.
24AA/JJ	.	.	.
24BB/LL	.	.	.
24C#/	.	.	.
24D#/JJ	.	.	.
24E\LL	.	4r	.
24G#\	.	.	.
24A\JJ	.	.	.
24B\LL	.	.	.
24c#\	.	.	.
24d#X\JJ	.	.	.
=97	=97	=97	=97
8e'\L	.	2r	.
8d#'\	.	.	.
8c#'\	.	.	.
8B'\J	.	.	.
=98	=98	=98	=98
8A'\L	.	24B/LL	.
.	.	24d#/	.
.	.	24e/JJ	.
8G#'\	.	24f#/LL	.
.	.	24g#/	.
.	.	24a/JJ	.
8F#'\	.	24b\LL	.
.	.	24dd#X\	.
.	.	24ee\JJ	.
8E'\J	.	24ff#\LL	.
.	.	24gg#\	.
.	.	24aa\JJ	.
=99	=99	=99	=99
8D#'/L	.	8bb'\L	ff
8C#'/	.	8aa'\	.
8BB'/	.	8gg#'\	.
8AA'/J	.	8ff#'\J	.
=100	=100	=100	=100
8GG#'/L	.	8ee'\L	.
8FF#'/	.	8dd#'\	.
8EE'/	.	8cc#'\	.
8DD#'/J	.	8b'\J	.
=101	=101	=101	=101
8CC#'/L	.	8a'/L	.
8BBB'/	.	8g#'/	.
8AAA'/	.	8f#'/	.
8GGG#'/J	.	8e'/J	.
=102	=102	=102	=102
2AAA/	.	8d#'/L	.
.	.	8c#'/	.
.	.	8B'/	.
.	.	8A'/J	.
=103	=103	=103	=103
*^	*	*	*
8G#'/L	2BBB\	.	2ry	.
8F#'/	.	.	.	.
8E'/	.	.	.	.
8D#'/J	.	.	.	.
=104	=104	=104	=104	=104
(8E/L	[2EE\	.	(2e/	p
8F#/	.	.	.	.
8G#/	.	.	.	.
8A/J	.	.	.	.
=105	=105	=105	=105	=105
8B/L	2EE\]	.	2a/	.
8c#/	.	.	.	.
8d/	.	.	.	.
8d#/J)	.	.	.	.
=106	=106	=106	=106	=106
(8EE/L	[2EE\	.	2B/ 2e/ 2g#/	.
8FF#/	.	.	.	.
8GG#/	.	.	.	.
8AA/J	.	.	.	.
=107	=107	=107	=107	=107
8BB/L	2EE\]	.	2A/ 2B/ 2f#/	.
8C#/	.	.	.	.
8Dn/	.	.	.	.
8D#/J)	.	.	.	.
=108	=108	=108	=108	=108
(8G#/L	[2EE\ 2E\	.	2e/	pp
8F#/	.	.	.	.
8G#/	.	.	.	.
8A/J	.	.	.	.
*v	*v	*	*	*
=109	=109	=109	=109
*^	*	*	*
*	*^	*	*	*
8B/L	4D#\	2EE\]	.	2a/	.
8c#/	.	.	.	.	.
8dn/	4F#\	.	.	.	.
8d#/J)	.	.	.	.	.
*	*v	*v	*	*	*
=110	=110	=110	=110	=110
(8EE/L	[2EE\	.	2B/ 2e/ 2g#/	.
8FF#/	.	.	.	.
8GG#/	.	.	.	.
8AA/J	.	.	.	.
=111	=111	=111	=111	=111
8BB/L	2EE\_	.	2A/ 2B/ 2f#/	.
8C#/	.	.	.	.
8Dn/	.	.	.	.
8D#/J)	.	.	.	.
*v	*v	*	*	*
=112	=112	=112	=112
8EE/] 8E/L	.	4G#/ 4B/ 4e/)	pp
8C#'/	.	.	.
8BB'/	.	4r	.
8AA'/J	.	.	.
=113	=113	=113	=113
8GG#'/L	.	4G#/ 4B/ 4e/	.
8AA'/	.	.	.
8GG#'/	.	4G#/ 4B/ 4e/	.
8FF#'/J	.	.	.
=114	=114	=114	=114
*>A1	*>A1	*>A1	*>A1
4EE/	.	4G#/ 4B/ 4e/	.
4r	.	4r	.
=115	=115	=115	=115
*^	*	*	*
4G#/ 4B/	4EE\	.	2ry	.
4r	4r	.	.	.
=116	=116	=116	=116	=116
4E/ 4G#/	4EE\	.	2ry	.
4r	4r	.	.	.
*v	*v	*	*	*
=117	=117	=117	=117
4r	.	4r	.
8r	.	8r	.
=118:|!	=118:|!	=118:|!	=118:|!
*>A2	*>A2	*>A2	*>A2
*^	*	*	*
4G#/ 4B/	4EE\	.	4e/	.
4r	4r	.	4r	.
=119	=119	=119	=119	=119
4G#/ 4B/	4EE\	.	2r	.
4r	4r	.	.	.
=120	=120	=120	=120	=120
4E/ 4G#/	4EE\	.	2r	.
4r	4r	.	.	.
*v	*v	*	*	*
=121	=121	=121	=121
2r	.	2r	.
=122	=122	=122	=122
4e\	pp	2r	.
4r	.	.	.
=123	=123	=123	=123
4e\	.	4gn/ 4b/	.
4r	.	4r	.
=124	=124	=124	=124
4e\	.	4gn/	.
4r	.	4r	.
=125	=125	=125	=125
4r	.	4r	.
8r	.	8r	.
=!|:	=!|:	=!|:	=!|:
*>B	*>B	*>B	*>B
*k[]	*k[]	*k[]	*k[]
8c`\	.	8cc`\ 8ccc`\	.
=126	=126	=126	=126
4G`\	.	4g\ 4gg\	.
8r	.	8r	.
(32G\LLL	.	(32g/LLL	.
32F\	.	32f/	.
32E\	.	32e/	.
32D\JJJ	.	32d/JJJ	.
=127	=127	=127	=127
4C\)	.	4c/)	.
8r	.	8r	.
8c`\	.	8cc`\ 8ccc`\	.
=128	=128	=128	=128
4A`\	.	4a`\ 4aa`\	.
8r	.	8r	.
(32A\LLL	.	(32a/LLL	.
32G\	.	32g/	.
32F\	.	32f/	.
32E\JJJ	.	32e/JJJ	.
=129	=129	=129	=129
4D\)	.	4d/)	.
8r	.	8r	.
8f`\	.	8ff`\ 8fff`\	.
=130	=130	=130	=130
4d`\	.	4dd`\ 4ddd`\	.
4B`\	.	4b`\ 4bb`\	.
=131	=131	=131	=131
4G`\	.	4g`\ 4gg`\	.
4F`\	.	4f`\ 4ff`\	.
=132	=132	=132	=132
4D`/	.	4d`/ 4dd`/	.
4BB`/	.	4B`/ 4b`/	.
=133	=133	=133	=133
4GG`/	ff	4G`/ 4g`/	.
4GGG/ 4GG/	.	4G/ 4g/	.
=134	=134	=134	=134
*^	*	*	*
*	*	*	*clefG2	*clefG2
16A-/LL	4AAA\ 4AA-\	.	8a-/	.
16e-/	.	.	.	.
16A-/ 16c/	.	.	8ry	.
16e-/JJ	.	.	.	.
16A-/ 16c/LL	8r	.	4ry	.
16e-/	.	.	.	.
16A-/ 16c/	8AA-`\	.	.	.
16e-/JJ	.	.	.	.
=135	=135	=135	=135	=135
16A-/ 16c/LL	4EE-`\	.	2ry	.
16e-/	.	.	.	.
16A-/ 16c/	.	.	.	.
16e-/JJ	.	.	.	.
16A-/ 16c/LL	8r	.	.	.
16e-/	.	.	.	.
16A-/ 16c/	(32EE-\LLL	.	.	.
.	32DD-\	.	.	.
16e-/JJ	32CC\	.	.	.
.	32BBB-\JJJ	.	.	.
=136	=136	=136	=136	=136
16A-/ 16c/LL	4AAA-`\)	.	4.ry	.
16e-/	.	.	.	.
16A-/ 16c/	.	.	.	.
16e-/JJ	.	.	.	.
16A-/ 16c/LL	4r	.	.	.
16e-/	.	.	.	.
16A-/ 16c/	.	.	8eee-`/	.
16e-/JJ	.	.	.	.
*v	*v	*	*	*
=137	=137	=137	=137
16A-/ 16c/LL	.	4ccc`/	.
16e-/	.	.	.
16A-/ 16c/	.	.	.
16e-/JJ	.	.	.
16A-/ 16c/LL	.	4aa-`/	.
16e-/	.	.	.
16A-/ 16c/	.	.	.
16e-/JJ	.	.	.
=138	=138	=138	=138
16A-/ 16c/LL	.	4ee-`/	.
16e-/	.	.	.
16A-/ 16c/	.	.	.
16e-/JJ	.	.	.
16A-/ 16c/LL	.	4cc`/	.
16e-/	.	.	.
16A-/ 16c/	.	.	.
16e-/JJ	.	.	.
=139	=139	=139	=139
16A-/ 16c/LL	.	4b-`/	.
16e-/	.	.	.
16A-/ 16c/	.	.	.
16e-/JJ	.	.	.
16A-/ 16c/LL	.	4a-`/	.
16e-/	.	.	.
16A-/ 16c/	.	.	.
16e-/JJ	.	.	.
=140	=140	=140	=140
*^	*	*	*
16B-/ 16d-/LL	4.r	.	4g`/	.
16e-/	.	.	.	.
16G/ 16B-/ 16d-/	.	.	.	.
16e-/JJ	.	.	.	.
16G/ 16B-/ 16d-/LL	.	.	8r	.
16e-/	.	ff	.	.
16G/ 16B-/ 16d-/	8E-X\	.	8ry	.
16e-/JJ	.	.	.	.
=141	=141	=141	=141	=141
16G/ 16B-/ 16d-/LL	4BB-`\	.	2ry	.
16e-/	.	.	.	.
16G/ 16B-/ 16d-/	.	.	.	.
16e-/JJ	.	.	.	.
16G/ 16B-/ 16d-/LL	8r	.	.	.
16e-/	.	.	.	.
16G/ 16B-/ 16d-/	(32BB-\LLL	.	.	.
.	32AA-\	.	.	.
16e-/JJ	32GG\	.	.	.
.	32FF\JJJ	.	.	.
=142	=142	=142	=142	=142
16G/ 16B-/ 16d-/LL	4EE-\)	.	4.ry	.
16e-X/	.	.	.	.
16G/ 16B-/ 16d-/	.	.	.	.
16e-/JJ	.	.	.	.
16G/ 16B-/ 16d-/LL	4r	.	.	.
16e-/	.	.	.	.
16G/ 16B-/ 16d-/	.	.	8ddd-`/	.
16e-/JJ	.	.	.	.
*v	*v	*	*	*
=143	=143	=143	=143
16G/ 16B-/ 16d-/LL	.	4bb-`/	.
16e-/	.	.	.
16G/ 16B-/ 16d-/	.	.	.
16e-/JJ	.	.	.
16G/ 16B-/ 16d-/LL	.	4gg`/	.
16e-/	.	.	.
16G/ 16B-/ 16d-/	.	.	.
16e-/JJ	.	.	.
=144	=144	=144	=144
16G/ 16B-/ 16d-/LL	.	4dd-`/	.
16e-/	.	.	.
16G/ 16B-/ 16d-/	.	.	.
16e-/JJ	.	.	.
16G/ 16B-/ 16d-/LL	.	4b-`/	.
16e-/	.	.	.
16G/ 16B-/ 16d-/	.	.	.
16e-/JJ	.	.	.
=145	=145	=145	=145
16G/ 16B-/LL	.	4g`/	.
16d-/	.	.	.
16G/ 16B-/	.	.	.
16d-/JJ	.	.	.
16G/ 16B-/LL	.	4f`/	.
16d-/	.	.	.
16G/ 16B-/	.	.	.
16d-/JJ	.	.	.
=146	=146	=146	=146
*^	*	*	*
16G/ 16B-/LL	4.r	.	4en`/	.
16c/	.	.	.	.
16G/ 16B-/	.	.	.	.
16c/JJ	.	.	.	.
16G/ 16B-/LL	.	.	8r	.
16c/	.	ff	.	.
16G/ 16B-/	8C`\	.	8ry	.
16c/JJ	.	.	.	.
=147	=147	=147	=147	=147
16G/ 16B-/LL	4GG`\	.	2ry	.
16c/	.	.	.	.
16G/ 16B-/	.	.	.	.
16c/JJ	.	.	.	.
16G/ 16B-/LL	8r	.	.	.
16c/	.	.	.	.
16G/ 16B-/	(32GG\LLL	.	.	.
.	32FF\	.	.	.
16c/JJ	32EE\	.	.	.
.	32DD\JJJ	.	.	.
=148	=148	=148	=148	=148
16G/ 16B-/LL	4CC`\)	.	4.ry	.
16c/	.	.	.	.
16G/ 16B-/	.	.	.	.
16c/JJ	.	.	.	.
16G/ 16B-/LL	4r	.	.	.
16c/	.	.	.	.
16G/ 16B-/	.	.	8bb-`\	.
16c/JJ	.	.	.	.
*v	*v	*	*	*
=149	=149	=149	=149
16G/ 16B-/LL	.	4gg`\	.
16c/	.	.	.
16G/ 16B-/	.	.	.
16c/JJ	.	.	.
16G/ 16B-/LL	.	4ee`\	.
16c/	.	.	.
16G/ 16B-/	.	.	.
16c/JJ	.	.	.
=150	=150	=150	=150
16G/ 16B-/LL	.	4cc`\	.
16c/	.	.	.
16G/ 16B-/	.	.	.
16c/JJ	.	.	.
16G/ 16B-/LL	.	4b-`\	.
16c/	.	.	.
16G/ 16B-/	.	.	.
16c/JJ	.	.	.
=151	=151	=151	=151
16G/ 16B-/LL	.	4g`/	.
16c/	.	.	.
16G/ 16B-/	.	.	.
16c/JJ	.	.	.
16G/ 16B-/LL	.	4e`/	.
16c/	.	.	.
16G/ 16B-/	.	.	.
16c/JJ	.	.	.
=152	=152	=152	=152
*^	*	*	*
16F/ 16A-/LL	4CC:\ 4FF:\ 4AA-:\ 4C:\	f	4.ry	.
16c/	.	.	.	.
16F/ 16A-/	.	.	.	.
16c/JJ	.	.	.	.
16F/ 16A-/LL	8r	.	.	.
16c/	.	.	.	.
16F/ 16A-/	8ry	.	8ccc`\	.
16c/JJ	.	.	.	.
*v	*v	*	*	*
=153	=153	=153	=153
16F/ 16A-/LL	.	4aa-`\	.
16c/	.	.	.
16F/ 16A-/	.	.	.
16c/JJ	.	.	.
16F/ 16A-/LL	.	4ff`\	.
16c/	.	.	.
16F/ 16A-/	.	.	.
16c/JJ	.	.	.
=154	=154	=154	=154
16F/ 16A-/LL	.	4cc`\	.
16c/	.	.	.
16F/ 16A-/	.	.	.
16c/JJ	.	.	.
16F/ 16A-/LL	.	4cc`\	.
16c/	.	.	.
16F/ 16A-/	.	.	.
16c/JJ	.	.	.
=155	=155	=155	=155
16F/ 16A-/LL	.	4a-`/	.
16c/	.	.	.
16F/ 16A-/	.	.	.
16c/JJ	.	.	.
16F/ 16A-/LL	.	4f`/	.
16c/	.	.	.
16F/ 16A-/	.	.	.
16c/JJ	.	.	.
=156	=156	=156	=156
*^	*	*	*
16F/ 16A-/ 16Bn/LL	4CC:\ 4FF:\ 4AA-:\ 4C:\	.	4.ry	.
16d/	.	.	.	.
16F/ 16A-/ 16B/	.	.	.	.
16d/JJ	.	.	.	.
16F/ 16A-/ 16B/LL	4ry	.	.	.
16d/	.	.	.	.
16F/ 16A-/ 16B/	.	.	8fff`\	.
16d/JJ	.	.	.	.
*v	*v	*	*	*
=157	=157	=157	=157
16F/ 16A-/ 16B/LL	.	4ddd`\	.
16d/	.	.	.
16F/ 16A-/ 16B/	.	.	.
16d/JJ	.	.	.
16F/ 16A-/ 16B/LL	.	4bbn`\	.
16d/	.	.	.
16F/ 16A-/ 16B/	.	.	.
16d/JJ	.	.	.
=158	=158	=158	=158
16F/ 16A-/ 16B/LL	.	4aa-`\	.
16d/	.	.	.
16F/ 16A-/ 16B/	.	.	.
16d/JJ	.	.	.
16F/ 16A-/ 16B/LL	.	4ff`\	.
16d/	.	.	.
16F/ 16A-/ 16B/	.	.	.
16d/JJ	.	.	.
=159	=159	=159	=159
16F/ 16A-/ 16B/LL	.	4dd`\	.
16d/	.	.	.
16F/ 16A-/ 16B/	.	.	.
16d/JJ	.	.	.
16F/ 16A-/ 16B/LL	.	4bn`\	.
16d/	.	.	.
16F/ 16A-/ 16B/	.	.	.
16d/JJ	.	.	.
=160	=160	=160	=160
*^	*	*	*
16E/ 16G/LL	4ry	.	4cc`\	.
16c/	.	.	.	.
16E/ 16G/	.	.	.	.
16c/JJ	.	ff	.	.
16E/ 16G/LL	4C`\	.	4ry	.
16c/	.	.	.	.
16E/ 16G/	.	.	.	.
16c/JJ	.	.	.	.
=161	=161	=161	=161	=161
16E/ 16G/LL	4GG`\	.	2ry	.
16c/	.	.	.	.
16E/ 16G/	.	.	.	.
16c/JJ	.	.	.	.
16E/ 16G/LL	4EE`\	.	.	.
16c/	.	.	.	.
16E/ 16G/	.	.	.	.
16c/JJ	.	.	.	.
=162	=162	=162	=162	=162
4E/ 4G/ 4c/	4CC\ 4C\	p	2ry	.
4r	4r	.	.	.
=163	=163	=163	=163	=163
4E/ 4G/ 4c/	4CC\ 4EE\ 4GG\ 4C\	.	2ry	.
4r	4r	.	.	.
=164	=164	=164	=164	=164
4.E;/ 4.G;/ 4.c;/	4.CC;\ 4.EE;\ 4.GG;\ 4.C;\	.	2ry	.
(24F/LL	8r	.	.	.
24A/	.	.	.	.
24c/JJ)	.	.	.	.
*v	*v	*	*	*
=165	=165	=165	=165
4FF/ 4AA/ 4C/ 4F/	.	8f'/L	pp
.	.	8g'/	.
4r	.	8a'/	.
.	.	8b-'/J	.
=166	=166	=166	=166
2r	.	8cc'\L	.
.	.	8dd'\	.
.	.	8ee'\	.
.	.	8ff\J	.
=167	=167	=167	=167
*	*	*^	*
8r	.	(4.cc/	8r	.
(8C\L	.	.	8e\L	.
8D\	.	.	8f\	.
8E\J	.	8b-/	8g\J	.
=168	=168	=168	=168	=168
8F\)	.	8a/)	8c\	.
*	*	*v	*v	*
(8FF/L	.	8r	.
8AA/	.	4r	.
8BB-/J)	.	.	.
=169	=169	=169	=169
*^	*	*	*
8r	4.C\	.	8r	.
8E/L	.	.	(8c/L	.
8F/	.	.	8d/	.
8G/J	8BB-\	.	8e/J	.
*v	*v	*	*	*
=170	=170	=170	=170
8AA'/L	.	8A'/ 8f'/)	.
(8C/	.	(8c/L	.
8AA/	.	8f/	.
8FF/J	.	8a/J	.
=171	=171	=171	=171
*	*	*^	*
8EE/L	.	4.cc/	8g\L	.
8CC/	.	.	8e\	.
8DD/	.	.	8f\	.
8EE/J)	.	8b-/)	8g\J	.
*	*	*v	*v	*
=172	=172	=172	=172
8FF'/L	.	8c/ 8a/	.
8AA'/	.	8r	.
8BB-'/	.	8B-/ 8d/ 8g/	.
8GG'/J	.	8r	.
=173	=173	=173	=173
8C'/L	.	8A/ 8c/ 8f/	.
8BBn'/	.	8r	.
8C'/J	.	8G/ 8B-/ 8e/	.
(24FF/LL	.	8r	.
24AA/	.	.	.
24C/JJ)	.	.	.
=174	=174	=174	=174
8F'\L	.	4A/ 4c/ 4f/	.
8G'\	.	.	.
8A'\	.	4r	.
8B-'\J	.	.	.
=175	=175	=175	=175
8c'\L	.	2r	.
8d'\	.	.	.
8e'\	.	.	.
8f'\J	.	.	.
=176	=176	=176	=176
(4.c\	.	8r	.
.	.	8e\ (8cc\L	.
.	.	8f\ 8dd\	.
8B-\	.	8g\ 8ee\J	.
=177	=177	=177	=177
8A'\L)	.	8a'\ 8ff'\)	.
(8c\	.	(8cc\L	.
8A\	.	8ff\	.
8F\J	.	8aa\J	.
=178	=178	=178	=178
*	*	*^	*
8E\L	.	4.ccc/	8gg\L	.
8C\	.	.	8ee\	.
8D\	.	.	8ff\	.
8E\J)	.	8bb-/	8gg\J	.
=179	=179	=179	=179	=179
8F\	.	4aa/)	4ff\	.
(8AA\L	.	.	.	.
8D\	.	4ryy	4r	.
8F\J)	.	.	.	.
*	*	*v	*v	*
=180	=180	=180	=180
(4.A\	.	8r	.
.	.	8a\ (8cc#\L	.
.	.	8bn\ 8dd\	.
8G\	.	8cc#\ 8ee\J	.
=181	=181	=181	=181
8F\L	.	8dd'\ 8ff'\)	.
8A\	.	(8a\L	.
8F\	.	8dd\	.
8D\J)	.	8ff\J	.
=182	=182	=182	=182
*	*	*^	*
(8C#/L	.	4.aa/	8ee\L	.
8AA/	.	.	8cc#\	.
8BB/	.	.	8dd\	.
8C#/J)	.	8gg/	8ee\J	.
*	*	*v	*v	*
=183	=183	=183	=183
8D'\L	.	8a\ 8ff\)	.
8F'\	.	8r	.
8G'\	.	8g\ 8b-\ 8ee\	.
8E'\J	.	8r	.
=184	=184	=184	=184
8A'\L	.	8f/ 8a/ 8dd/	.
8G#'\	.	8r	.
8A'\J	.	8e/ 8a/ 8cc#/	.
8r	.	(24d/LL	f
.	.	24f/	.
.	.	24a/JJ)	.
=185	=185	=185	=185
*^	*	*	*
8r	4r	.	8dd'/L	.
(24D/LL	.	.	8ee'/	.
24F/	.	.	.	.
24A/JJ)	.	.	.	.
8d/	8r	.	8ff'/	.
.	.	.	eq/	.
8r	(24DD\LL	.	8gg'/J	.
.	24FF\	.	.	.
.	24AA\JJ)	.	.	.
*v	*v	*	*	*
=186	=186	=186	=186
.	.	fq/	.
*	*	*^	*
8D'\L	.	4aa/	8r	.
8E'\	.	.	8g'\L	.
8F'\J	.	8r	8a'\J	.
8r	.	(24g/LL	8r	.
.	.	24b-/	.	.
.	.	24dd/JJ)	.	.
*	*	*v	*v	*
=187	=187	=187	=187
*^	*	*	*
8r	4r	.	8gg'/L	.
(24G/LL	.	.	8aa'/	.
24B-/	.	.	.	.
24d/JJ)	.	.	.	.
8g/	8r	.	8bb-'/	.
.	.	.	aq/	.
8r	24GG\LL	.	8ccc'/J	.
.	24BB\	.	.	.
.	24D\JJ	.	.	.
*v	*v	*	*	*
=188	=188	=188	=188
.	.	b-q/	.
*	*	*^	*
8G'\L	.	4ddd/	8r	.
8A'\	.	.	8cc'\L	.
8B-'\J	.	8r	8dd'\J	.
8r	.	(24c/LL	8r	.
.	.	24e/	.	.
.	.	24g/JJ)	.	.
*	*	*v	*v	*
=189	=189	=189	=189
*^	*	*	*
8r	4r	.	8cc'/L	.
(24C/LL	.	.	8dd'/	.
24E/	.	.	.	.
24G/JJ)	.	.	.	.
8c/	8r	.	8ee'/	.
.	.	.	dq/	.
8r	(24CC\LL	.	8ff'/J	.
.	24EE\	.	.	.
.	24GG\JJ)	.	.	.
*v	*v	*	*	*
=190	=190	=190	=190
.	.	eq/	.
*	*	*^	*
8C'\L	.	4gg/	8r	.
8D'\	.	.	8f'\L	.
8E'\J	.	8r	8g'\J	.
8r	.	(24f/LL	8r	.
.	.	24a/)	.	.
.	.	24cc/JJ	.	.
*	*	*v	*v	*
=191	=191	=191	=191
*^	*	*	*
8r	4r	.	8ff'/L	.
24F/LL	.	.	8gg'/	.
24A/	.	.	.	.
24c/JJ	.	.	.	.
8f/	8r	.	8aa'/	.
.	.	.	gq/	.
8r	(24FF\LL	.	8bb-'/J	.
.	24AA\	.	.	.
.	24C\JJ)	.	.	.
*v	*v	*	*	*
=192	=192	=192	=192
.	.	aq/	.
*	*	*^	*
8F'\L	.	4ccc/	8r	.
8G'\	.	.	8b-'\L	.
8A'\J	.	8r	8cc'\J	.
8r	.	8ccc/	8r	.
*clefG2	*clefG2	*	*	*
=193	=193	=193	=193	=193
8g'/L	.	4ee/	8b-\L	p
8a'/	.	.	8cc\	.
8b-'/J	.	8r	8dd-\J	.
8r	.	8ee/	8r	.
=194	=194	=194	=194	=194
8a'/L	.	4ff/	8cc\L	.
8g'/	.	.	8b-\	.
8f'/J	.	8r	8a\J	.
8r	.	8ff/	8r	.
=195	=195	=195	=195	=195
8e'/L	.	4cc#/	8g\L	.
8f'/	.	.	8a\	.
8g'/J	.	8r	8b-\J	.
8r	.	(24d/LL	8r	f
.	.	24f/	.	.
.	.	24a/JJ)	.	.
*clefF4	*clefF4	*	*	*
*	*	*v	*v	*
=196	=196	=196	=196
*^	*	*	*
8r	4r	.	8dd'/L	.
(24D/LL	.	.	8ee'/	.
24F/	.	.	.	.
24A/)JJ	.	.	.	.
8d/	8r	.	8ff'/	.
.	.	.	eq/	.
8r	(24DD\LL	.	8gg'/J	.
.	24FF\	.	.	.
.	24AA\JJ)	.	.	.
*v	*v	*	*	*
=197	=197	=197	=197
.	.	fq/	.
*	*	*^	*
8D'\L	.	4aa/	8r	.
8E'\	.	.	8g'\L	.
8F'\J	.	8r	8a'\J	.
8r	.	8aa/	8r	p
*clefG2	*clefG2	*	*	*
=198	=198	=198	=198	=198
8e'/L	.	4cc#/	8g\L	.
8f'/	.	.	8a\	.
8g'/J	.	8r	8b-\J	.
8r	.	8cc#/	8r	.
=199	=199	=199	=199	=199
8f'/L	.	4dd/	8a\L	.
8e'/	.	.	8g\	.
8d'/J	.	8r	8f\J	.
8r	.	8dd/	8r	.
=200	=200	=200	=200	=200
8d'/L	.	4g#/	8f\L	.
8c'/	.	.	8e\	.
8Bn'/J	f	8r	8d\J	.
8r	.	(24A/LL	8r	.
.	.	24c/	.	.
.	.	24e/JJ)	.	.
*clefF4	*clefF4	*	*	*
*	*	*v	*v	*
=201	=201	=201	=201
*^	*	*	*
8r	4r	.	8a'/L	.
24AA/LL	.	.	8b'/	.
24C/	.	.	.	.
24E/JJ	.	.	.	.
8A/	8r	.	8cc'/	.
.	.	.	Bq/	.
8r	(24AAA\LL	.	8dd/J	.
.	24CC\	.	.	.
.	24EE\JJ)	.	.	.
*v	*v	*	*	*
=202	=202	=202	=202
.	.	cq/	.
*	*	*^	*
8AA'/L	.	4ee/	8r	.
8BB'/	.	.	8d'\L	.
8C'/J	.	8r	8e'\J	.
8r	.	8ee/	8r	p
=203	=203	=203	=203	=203
8B'\L	.	4g#/	8d\L	.
8c'\	.	.	8e\	.
8d'\J	.	8r	8f\J	.
8r	.	8g#/	8r	.
=204	=204	=204	=204	=204
8c'\L	.	4a/	8e\L	.
8B'\	.	.	8d\	.
8A'\J	.	8r	8c\J	.
8r	.	8a/	8r	.
=205	=205	=205	=205	=205
8A'\L	.	4d#/	8c'\L	.
8G#'\	.	.	8B'\	.
8F#'\J	.	8r	8A'\J	.
8r	.	8d#/	8r	.
*	*	*v	*v	*
=206	=206	=206	=206
8r	.	4.G#/ 4.e/	.
(24EE/LL	.	.	.
24GG#/	.	.	.
24BB/JJ)	f	.	.
[4E\	.	.	.
.	.	8A/ 8e/ 8f#/	.
=207	=207	=207	=207
2E\]	.	8B/ 8e/ 8g#/L	p
.	.	8c/ 8e/ 8a/	.
.	.	8d/ 8e/ 8b/	.
.	.	8B/ 8e/ 8g#/J	.
=208	=208	=208	=208
8r	.	4c/ 4e/ 4a/	.
(24EE/LL	.	.	.
24AA/	.	.	.
24C/JJ	f	.	.
[4E\)	.	8r	.
.	.	8e'/ 8cc'/	.
=209	=209	=209	=209
2E\]	.	8d'/ 8e'/ 8b'/L	p
.	.	8c'/ 8e'/ 8a'/	.
.	.	8B'/ 8e'/ 8g#'/	.
.	.	8A'/ 8e'/ 8f#'/J	.
=210	=210	=210	=210
8r	.	4G#/ 4e/	.
(24EE/LL	.	.	.
24GG#/	.	.	.
24BB/JJ)	ff	.	.
[4E\	p	8r	.
.	.	8A/ 8e/ 8f#/	.
=211	=211	=211	=211
2E\]	.	8B'/ 8e'/ 8g#'/L	p
.	.	8c'/ 8e'/ 8a'/	.
.	.	8d'/ 8e'/ 8b'/	.
.	.	8B'/ 8e'/ 8g#'/J	.
=212	=212	=212	=212
8r	.	4c/ 4e/ 4a/	.
(24EE/LL	.	.	.
24AA/	.	.	.
24C/JJ)	ff	.	.
[4E\	p	8r	.
.	.	8e/ 8cc/	.
=213	=213	=213	=213
2E\]	.	8d'/ 8e'/ 8b'/L	p
.	.	8c'/ 8e'/ 8a'/	.
.	.	8B'/ 8e'/ 8g#'/	.
.	.	8A'/ 8e'/ 8f#'/J	.
=214	=214	=214	=214
8r	.	[2G#/ [2B/ [2e/	.
8EE'/L	ff	.	.
8GG#'/	.	.	.
8BB'/J	.	.	.
=215	=215	=215	=215
8C#'/L	.	2G#/] 2B/] 2e/]	.
8D#'/	.	.	.
8E'/	.	.	.
8EE'/J	.	.	.
=216	=216	=216	=216
8r	.	[2A/ [2dn/ [2f#/ [2a/	ff
8FF#'/L	.	.	.
8AA'/	.	.	.
8C#'/J	.	.	.
=217	=217	=217	=217
8Dn'/L	.	2A/] 2d/] 2f#/] 2a/]	.
8E'/	.	.	.
8F#'/	.	.	.
8FF#'/J	.	.	.
=218	=218	=218	=218
8r	.	[2d/ [2e/ [2g#/ [2b/ [2dd/	ff
8GG#'/L	.	.	.
8BB'/	.	.	.
8D#'/J	.	.	.
=219	=219	=219	=219
8E'\L	.	2d/] 2e/] 2g#/] 2b/] 2dd/]	.
8F#'\	.	.	.
8G#'\	.	.	.
8A'\J	.	.	.
=220	=220	=220	=220
8B'\L	.	8d/ 8e/L	p
8A'\	.	8d/ 8e/	.
8G#'\	.	8d/ 8e/	.
8F#'\J	.	8d/ 8e/J	.
=221	=221	=221	=221
*	*	*^	*
4E\	.	8dd'/L	8d\ 8e\L	.
.	.	8cc#'/	8d\ 8e\	.
4r	.	8b'/	8d\ 8e\	.
.	.	8a'/J	8d\ 8e\J	.
=222	=222	=222	=222	=222
8E'\L	.	4g#/	8d\ 8e\L	.
8F#'\	.	.	8d\ 8e\	.
8G#'\	.	4r	8d\ 8e\	.
8A'\J	.	.	8d\ 8e\J	.
=223	=223	=223	=223	=223
4B\	.	8g#'/L	8d\ 8e\L	.
.	.	8a'/	8d\ 8e\	.
4r	.	8b/	8d\ 8e\	.
.	.	8cc#/J	8d\ 8e\J	.
*	*	*v	*v	*
=224	=224	=224	=224
8E\ 8G#\	.	8d/ 8e/ 8b/ 8dd/	pp
8r	.	8r	.
4r	.	4r	.
=225	=225	=225	=225
8F#\ 8A\	.	8c#/ 8a/ 8cc#/	.
8r	.	8r	.
4r	.	4r	.
=226	=226	=226	=226
8D\ 8B\	.	8f#/ 8a/ 8ff#/	.
8r	.	8r	.
4r	.	4r	.
=227	=227	=227	=227
8E\ 8B\	.	8d/ 8g#/	.
8r	.	8r	.
4r	.	4r	.
=228	=228	=228	=228
4r;	.	4r;	.
8r	.	8r	.
=||	=||	=||	=||
*k[f#c#g#]	*k[f#c#g#]	*k[f#c#g#]	*k[f#c#g#]
8A`\	.	8a`\ 8aa`\	f
=229	=229	=229	=229
4E`\	.	4e`\ 4ee`\	.
8r	.	8r	.
(32E/LLL	.	(32e/LLL	.
32D/	.	32d/	.
32C#/	.	32c#/	.
32BB/JJJ	.	32B/JJJ	.
=230	=230	=230	=230
4AA/)	.	4A/)	.
8r	.	8r	.
8A`\	.	8a`\ 8aa`\	.
=231	=231	=231	=231
4F#`\	.	4f#`\ 4ff#`\	.
8r	.	8r	.
(32F#\LLL	.	(32f#/LLL	.
32E\	.	32e/	.
32D\	.	32d/	.
32C#\JJJ	.	32c#/JJJ	.
=232	=232	=232	=232
4BB/)	.	4B/)	.
8r	.	8r	.
8d`\	.	8dd`\ 8ddd`\	f
=233	=233	=233	=233
4B`\	.	4b`\ 4bb`\	.
4G#`\	.	4g#`\ 4gg#`\	.
=234	=234	=234	=234
4E`\	.	4e`/ 4ee`/	.
4D`\	.	4d`/ 4dd`/	.
=235	=235	=235	=235
4BB`/	.	4B`/ 4b`/	.
4GG#`/	.	4G#`/ 4g#`/	.
=236	=236	=236	=236
4EE`/	.	4E`/ 4e`/	.
4r	.	8r	.
.	.	(24A/LL	.
.	.	24c#/	.
.	.	24e/JJ)	.
=237	=237	=237	=237
4AA:\ 4C#:\ 4E:\ 4A:\	.	8a'\L	.
.	.	8b'\	.
4r	.	8cc#'\	.
.	.	8dd'\J	.
=238	=238	=238	=238
2r	.	8ee'\L	.
.	.	8ff#'\	.
.	.	8gg#'\	.
.	.	8aa'\J	.
=239	=239	=239	=239
*	*	*^	*
8r	.	(4.ee/	8r	.
(8E\L	.	.	8g#\L	.
8F#\	.	.	8a\	.
8G#\J	.	8dd/	8b\J	.
*	*	*v	*v	*
=240	=240	=240	=240
8A'\)	.	8e/ 8cc#/)	.
(8AA/L	.	8r	.
8C#/	.	4r	.
8D/J	.	.	.
=241	=241	=241	=241
4.E/	.	8r	.
.	.	8G#/ (8e/L	.
.	.	8A/ 8f#/	.
8D/	.	8B/ 8g#/J	.
=242	=242	=242	=242
8C#/L	.	8c#/ 8a/L	.
8E/	.	8e/	.
8C#/	.	8a/	.
8AA/J)	.	8cc#/J	.
=243	=243	=243	=243
*	*	*^	*
(8GG#/L	.	4.ee/	8b\L	.
8EE/	.	.	8g#\	.
8FF#/	.	.	8a\	.
8GG#/J	.	8dd/	8b\J	.
=244	=244	=244	=244	=244
8AA/L	.	8cc#/L	4.e\	.
8GG#/	.	8b/	.	.
8FF#/	.	8a/	.	.
8BB/J)	.	8b/J	8d#\	.
=245	=245	=245	=245	=245
*^	*	*	*	*
(8E/L	2EE\	.	8g#/L	4B\	.
8BB/	.	.	8e/	.	pp
8F#/	.	.	8a/	4A\ 4d#\	.
8BB/J	.	.	8b/J	.	.
=246	=246	=246	=246	=246	=246
8E/L	2EE\	.	8g#/L	4B\	.
8BB/	.	.	8e/	.	.
8F#/	.	.	8a/	4A\ 4d#\	.
8BB/J	.	.	8b/J	.	.
*v	*v	*	*	*	*
=247	=247	=247	=247	=247
4EE/ 4E/)	.	4g#/)	4B\ 4e\	.
*	*	*v	*v	*
4r	.	4r	.
=248	=248	=248	=248
4r	.	8r	.
.	.	(8e/L	pp
*^	*	*^	*
8E/L	4EE\	.	8gn/	4Gn\ 4c#\	.
8AA/J	.	.	8a/J	.	.
=249	=249	=249	=249	=249	=249
(8D/L	2DD\	.	8f#/L	4A\	.
8AA/	.	.	8d/	.	.
8E/	.	.	8gn/	4Gn\ 4c#\	.
8AA/J	.	.	8a/J	.	.
=250	=250	=250	=250	=250	=250
8D/L	2DD\	.	8f#/L	4A\	.
8AA/	.	.	8d/	.	.
8E/	.	.	8gn/	4Gn\ 4c#\	.
8AA/J	.	.	8a/J)	.	.
*v	*v	*	*	*	*
=251	=251	=251	=251	=251
4DD/ 4D/)	.	4f#/	4A\ 4d\	.
*	*	*v	*v	*
4r	.	4r	.
=252	=252	=252	=252
4r	.	8r	.
.	.	(8a/L	ff
*^	*	*^	*
8B/L	(4BB\	.	8dd/	4d\ 4g#X\	.
8E/J	.	.	8ee/J	.	.
=253	=253	=253	=253	=253	=253
8A/L	4AA\	.	8cc#/L	4e\	.
8E/	.	.	8a/	.	.
8B/	4BB\	.	8dd/	4d\ 4g#\	.
8E/J	.	.	8ee/J	.	.
=254	=254	=254	=254	=254	=254
8A/L	4AA\	.	8cc#/L	4e\	.
8E/	.	.	8a/	.	.
8B/	4BB\)	.	8dd/	4d\ 4g#\	.
8E/J	.	.	8ee/J	.	.
*v	*v	*	*	*	*
=255	=255	=255	=255	=255
24AA\LL	.	4cc#/)	4e\ 4a\	.
24C#\	.	.	.	.
24D\JJ	.	.	.	.
24E\LL	.	.	.	.
24F#\	.	.	.	.
24G#\JJ	.	.	.	.
24A\LL	.	4ryy	8r	.
24c#\	.	.	.	.
24d\JJ	.	.	.	.
8ry	.	.	24e\LL	.
.	.	.	24f#\	.
.	.	.	24g#\JJ	.
*	*	*v	*v	*
=256	=256	=256	=256
2r	.	8a'\L	.
.	.	8g#'\	.
.	.	8f#'\	.
.	.	8e'\J	.
=257	=257	=257	=257
8d'\L	.	24e\LL	.
.	.	24g#\	.
.	.	24a\JJ	.
8c#'\	.	24b\LL	.
.	.	24cc#\	.
.	.	24dd\JJ	.
8B'\	.	24ee\LL	.
.	.	24gg#\	.
.	.	24aa\JJ	.
8A'\J	.	24bb\LL	.
.	.	24ccc#\	.
.	.	24ddd\JJ	.
=258	=258	=258	=258
8G#'\L	.	8eee'\L	.
8E'\	.	8ddd'\	.
8F#'\	.	8ccc#'\	.
8G#'\J	.	8bb'\J	.
=259	=259	=259	=259
24AA\LL	.	4aa\	.
24C#\	.	.	.
24D\JJ	.	.	.
24E\LL	.	.	.
24F#\	.	.	.
24G#\JJ	.	.	.
24A\LL	.	8r	.
24c#\	.	.	.
24d\JJ	.	.	.
8r	.	24e\LL	.
.	.	24f#\	.
.	.	24g#\JJ	.
=260	=260	=260	=260
2r	.	8a'\L	.
.	.	8g#'\	.
.	.	8f#'\	.
.	.	8e'\J	.
=261	=261	=261	=261
8d'\L	.	24e/LL	.
.	.	24g#/	.
.	.	24a/JJ	.
8c#'\	.	24b\LL	.
.	.	24cc#\	.
.	.	24dd\JJ	.
8B'\	.	24ee\LL	.
.	.	24gg#\	.
.	.	24aa\JJ	.
8A'\J	.	24bb\LL	.
.	.	24ccc#\	.
.	.	24ddd\JJ	.
=262	=262	=262	=262
8G#'\L	.	8eee'\L	ff
8F#'\	.	8ddd'\	.
8E'\	.	8ccc#'\	.
8D'\J	.	8bb'\J	.
=263	=263	=263	=263
8C#'/L	.	8aa'\L	.
8BB'/	.	8gg#'\	.
8AA'/	.	8ff#'\	.
8GG#'/J	.	8ee'\J	.
=264	=264	=264	=264
8FF#'/L	.	8dd#'\L	.
8EE'/	.	8cc#'\	.
8DD#'/	.	8b'\	.
8BBB'/J	.	8a'\J	.
=265	=265	=265	=265
*	*	*^	*
[2EE/	.	4g#/	(8g#\L	p
.	.	.	8f#\	.
.	.	4g#/	8e\	.
.	.	.	8dn\J	.
=266	=266	=266	=266	=266
2EE/_	.	4a/	8c#\L	.
.	.	.	8B\	.
.	.	4d#/	8A\	.
.	.	.	8B\J	.
*	*	*v	*v	*
*	*	*clefF4	*clefF4
=267	=267	=267	=267
*	*	*^	*
2EE/_	.	4e/	8G#\L	.
.	.	.	8F#\	.
.	.	4G#/	8E\	.
.	.	.	8D\J	.
=268	=268	=268	=268	=268
2EE/_	.	4A/	8C#\L	.
.	.	.	8BB\	.
.	.	4D#/	8AA\	.
.	.	.	8BB\J	.
*	*	*v	*v	*
=269	=269	=269	=269
(8EE/L]	.	4GG#/ 4E/)	.
8GG#/	.	.	.
8BB/	.	4r	.
8D#/J	.	.	.
=270	=270	=270	=270
8E\L	.	2r	.
8G#\	.	.	.
8B\	.	.	.
8d#\J	.	.	.
*	*	*clefG2	*clefG2
=271	=271	=271	=271
8e\L	.	4r	.
8d\	.	.	.
8e\J)	.	8r	.
8r	.	(8e/	.
=272	=272	=272	=272
2r	.	8fn/L	.
.	.	8e/	.
.	.	8b/	.
.	.	8g#/J)	.
=273	=273	=273	=273
(8dn\L	.	4r	.
8c#\	.	.	.
8d\J)	.	8r	.
8r	.	(8e/	.
=274	=274	=274	=274
2r	.	8fn/L	.
.	.	8e/	.
.	.	8b/	.
.	.	8g#/J)	.
=275	=275	=275	=275
(8cn\L	.	4r	.
8B\	.	.	.
8c\J)	.	8r	.
8r	.	(8e/	.
=276	=276	=276	=276
2r	.	8fn/L	.
.	.	8e/	.
.	.	8ccn/	.
.	.	8a/J)	.
=277	=277	=277	=277
*^	*	*	*
*	*^	*	*	*
4r	8r	[2G#\	.	2r	.
*	*v	*v	*	*	*
.	(4B/	.	.	.
[4d/	.	.	.	.
.	8e/	.	.	.
=278	=278	=278	=278	=278
[2B/) 2d/_ [2fn/	2G#\_	.	(8g#X\L	.
.	.	.	8b\	.
.	.	.	8dd\	.
.	.	.	8ee\J	.
=279	=279	=279	=279	=279
2B/_ 2d/] (2f/]	2G#\_	.	8ffn\L	.
.	.	.	8ee\	.
.	.	.	8ggn\	.
.	.	.	8ff\J	.
=280	=280	=280	=280	=280
4e/	2G#\] 2B\]	.	8ee\L	.
.	.	.	8dd\	.
4d/)	.	.	8ccn\	.
.	.	.	8b\J	.
*v	*v	*	*	*
*clefG2	*clefG2	*	*
=281	=281	=281	=281
16A/ 16cn/LL	.	4a\)	.
16e/	.	.	.
16A/ 16c/	.	.	.
16e/JJ	.	.	.
16A/ 16c/LL	.	8r	.
16e/	.	.	.
16A/ 16c/	.	(8aa\	.
16e/JJ	.	.	.
=282	=282	=282	=282
16A/ 16cn/LL	.	8gg#\L	mp
16e/	.	.	.
16A/ 16c/	.	8aa\	.
16e/JJ	.	.	.
16A/ 16c/LL	.	8cccn\	.
16e/	.	.	.
16A/ 16c/	.	8aa\J)	.
16e/JJ	.	.	.
=283	=283	=283	=283
16B/ 16d/LL	.	(8.aa\L	.
16e/	.	.	.
16B/ 16d/	.	.	.
16fn/JJ	.	32bb\LL	.
.	.	32aa\JJJ	.
16B/ 16d/LL	.	[4gg#\)	.
16f/	.	.	.
16B/ 16d/	.	.	.
16f/JJ	.	.	.
=284	=284	=284	=284
16B/ 16d/LL	.	(4gg#\]	.
16fn/	.	.	.
16B/ 16d/	.	.	.
16f/JJ	.	.	.
16B/ 16d/LL	.	4ggn\)	.
16f/	.	.	.
16B/ 16d/	.	.	.
16f/JJ	.	.	.
=285	=285	=285	=285
16cn/ 16e/LL	.	4ggn\	.
16fn/	.	.	.
16c/ 16e/	.	.	.
16gn/JJ	.	.	.
16c/ 16e/LL	.	8r	.
16g/	.	.	.
16c/ 16e/	.	(8cccn\	.
16g/JJ	.	.	.
=286	=286	=286	=286
16cn/ 16e/LL	.	8bb\L	.
16gn/	.	.	.
16c/ 16e/	.	8cccn\	.
16g/JJ	.	.	.
16c/ 16e/LL	.	8eee\	.
16g/	.	.	.
16c/ 16e/	.	8ccc\J)	.
16g/JJ	.	.	.
=287	=287	=287	=287
16d/ 16fn/LL	.	(8.cccn\L	.
16gn/	.	.	.
16d/ 16f/	.	.	.
16a-/JJ	.	32ddd\LL	.
.	.	32ccc\JJJ)	.
16d/ 16f/LL	.	[4bb\	.
16a-/	.	.	.
16d/ 16f/	.	.	.
16a-/JJ	.	.	.
=288	=288	=288	=288
16d/ 16fn/LL	.	4bb\_	.
16a-/	.	.	.
16d/ 16f/	.	.	.
16a-/JJ	.	.	.
16d/ 16f/LL	.	4bb\]	.
16a-/	.	.	.
16d/ 16f/	.	.	.
16a-/JJ	.	.	.
=289	=289	=289	=289
16e-/LL	.	4bb-\	.
16gn/JJ	.	.	.
*clefF4	*clefF4	*	*
16E-\ 16Gn\LL	.	.	.
16B-\JJ	.	.	.
16E-\ 16G\LL	.	8r	.
16B-\	.	.	.
16E-\ 16G\	.	(8ee-\	.
16B-\JJ	.	.	.
=290	=290	=290	=290
16E-\ 16Gn\LL	.	8dd\L	.
16B-\	.	.	.
16E-\ 16G\	.	8ee-\	.
16B-\JJ	.	.	.
16E-\ 16G\LL	.	8gg#\	.
16B-\	.	.	.
16E-\ 16G\	.	8ee-\J)	.
16B-\JJ	.	.	.
=291	=291	=291	=291
16Fn\ 16A-\LL	.	(8.ee-\L	.
16B-\	.	.	.
16F\ 16A-\	.	.	.
16Bn\JJ	.	32ffn\LL	.
.	.	32ee-\JJJ)	.
16F\ 16A-\LL	.	[4d\ [4dd\	.
16B\	.	.	.
16F\ 16A-\	.	.	.
16B\JJ	.	.	.
=292	=292	=292	=292
16F#\ 16A\LL	.	4d\] 4dd\]	.
16B\	.	.	.
16F#\ 16A\	.	.	.
16cn\JJ	.	.	.
16F#\ 16A\LL	.	4dd\	.
16c\	.	.	.
16F#\ 16A\	.	.	.
16c\JJ	.	.	.
=293	=293	=293	=293
16Gn\ 16B\LL	.	(4ddS\	.
16cn\	.	.	.
16G\ 16B\	.	.	.
16d\JJ	.	.	.
16G\ 16B\LL	.	[4fn\ [4ffn\)	.
16d\	.	.	.
16G\ 16B\	.	.	.
16d\JJ	.	.	.
=294	=294	=294	=294
16G#\ 16B\LL	.	4fn\] (4ffn\]	.
16d\	.	.	.
16G#\ 16B\	.	.	.
16d\JJ	.	.	.
16G#\ 16B\LL	.	4e\ 4ee\)	.
16d\	.	.	.
16G#\ 16B\	.	.	.
16d\JJ	.	.	.
=295	=295	=295	=295
16A\ 16c#\LL	.	(4eeS\	.
16d\	.	.	.
16A\ 16c#\	.	.	.
16e\JJ	.	.	.
16A\ 16c#\LL	.	[4gn\ [4ggn\)	.
16e\	.	.	.
16A\ 16c#\	.	.	.
16e\JJ	.	.	.
=296	=296	=296	=296
16A#\ 16c#\LL	.	4gn\] (4ggn\]	.
16e\	.	.	.
16A#\ 16c#\	.	.	.
16e\JJ	.	.	.
16A#\ 16c#\LL	.	4f#X\ 4ff#X\)	.
16e\	.	.	.
16A#\ 16c#\	.	.	.
16e\JJ	.	.	.
=297	=297	=297	=297
16B\ 16d\LL	.	(4ff#S\	.
16e\	.	.	.
16B\ 16d\	.	.	.
16e\JJ	.	.	.
16B\ 16d\LL	.	[4a\ [4aa\)	.
16fn\	.	.	.
16B\ 16d\	.	.	.
16f\JJ	.	.	.
=298	=298	=298	=298
16B\ 16d\LL	.	4a\] (4aa\]	.
16fn\	.	.	.
16B\ 16d\	.	.	.
16f\JJ	.	.	.
16B\ 16d\LL	.	4g#X\ 4gg#X\)	.
16f\	.	.	.
16B\ 16d\	.	.	.
16f\JJ	.	.	.
=299	=299	=299	=299
4B\ 4d\	.	4g#\ 4gg#\	.
8r	.	8r	.
(32Fn\LLL	.	(32fn/LLL	ff
32E\	.	32e/	.
32D\	.	32d/	.
32Cn\JJJ	.	32cn/JJJ	.
=300	=300	=300	=300
4BB/)	.	4B/)	.
4r	.	8r	.
.	.	8a\ (8aa\	p
=301	=301	=301	=301
4r	.	4g#\ 4gg#\)	.
8r	.	8r	.
(32Fn\LLL	.	(32fn/LLL	ff
32E\	.	32e/	.
32D\	.	32d/	.
32Cn\JJJ	.	32cn/JJJ	.
=302	=302	=302	=302
4BB/)	.	4B/)	.
4r	.	8r	.
.	.	(8aa\	pp
=303	=303	=303	=303
4r	.	4gg#\)	.
4B\ 4d\ 4fn\	.	8r	.
.	.	(8aa\	.
=304	=304	=304	=304
4r	.	4gg#\)	.
4B\ 4d\ 4fn\	.	8r	.
.	.	(8aa\	.
=305	=305	=305	=305
4r	.	4gg#\)	.
4B\ 4d\ 4fn\	.	4r	.
=306	=306	=306	=306
2r	.	4r	.
.	.	8r	.
.	.	8ee\	.
=307	=307	=307	=307
4C#\ 4E\ 4A\ 4c#\	.	8r	.
.	.	24a\LL	ff
.	.	24aa\	.
.	.	24a\JJ	.
4r	.	24e\LL	.
.	.	24ee\	.
.	.	24e\JJ	.
.	.	24c#/LL	.
.	.	24cc#/	.
.	.	24c#/JJ	.
=308	=308	=308	=308
8r	.	24A/LL	.
.	.	24a/	.
.	.	24A/JJ	.
24E/LL	.	8r	.
24e/	.	.	.
24E/JJ	.	.	.
24C#/LL	.	4r	.
24c#/	.	.	.
24C#/JJ	.	.	.
24AA/LL	.	.	.
24A/	.	.	.
24AA/JJ	.	.	.
=309	=309	=309	=309
2FF#\ 2D#\	.	2A/ 2B/	.
=310	=310	=310	=310
2EE\ 2Dn\	.	2G#/ 2e/	.
=311	=311	=311	=311
*^	*	*	*
8r	4AA\ 4C#\	.	4r	.
24E/LL	.	.	.	.
24e/	.	.	.	.
24E/JJ	.	.	.	.
4r	4r	.	24A/LL	.
.	.	.	24a/	.
.	.	.	24A/JJ	.
.	.	.	24c#/LL	.
.	.	.	24cc#/	.
.	.	.	24c#/JJ	.
*v	*v	*	*	*
=312	=312	=312	=312
2r	.	24e\LL	.
.	.	24ee\	.
.	.	24e\JJ	.
.	.	24a\LL	.
.	.	24aa\	.
.	.	24a\JJ	.
.	.	24cc#\LL	.
.	.	24ccc#\	.
.	.	24cc#\JJ	.
.	.	24ee\LL	.
.	.	24eee\	.
.	.	24ee\JJ	.
*clefG2	*clefG2	*	*
=313	=313	=313	=313
2f#/ 2a/	.	2dd#\ 2aa\ 2bb\ 2ddd#\	.
=314	=314	=314	=314
2e/ 2g#/	.	2ddn\ 2gg#\ 2bb\ 2eee\	.
*clefF4	*clefF4	*	*
=315	=315	=315	=315
*	*	*^	*
24A\LL	.	8cc#/ 8aa/	8r	.
24c#\	.	.	.	.
24d\JJ	.	.	.	.
8r	.	8r	24e\LL	.
.	.	.	24f#\	.
.	.	.	24g#\JJ	.
4r	.	24r	8a\	.
.	.	24cc#/LL	.	.
.	.	24dd/JJ	.	.
.	.	24ee/LL	8r	.
.	.	24ff#/	.	.
.	.	24gg#/JJ	.	.
*	*	*v	*v	*
=316	=316	=316	=316
2r	.	8aa'\L	.
.	.	8gg#'\	.
.	.	8ff#'\	.
.	.	8ee'\J	.
=317	=317	=317	=317
24EE/LL	.	8dd'\L	.
24GG#/	.	.	.
24AA/JJ	.	.	.
24BB/LL	.	8cc#'\	.
24C#/	.	.	.
24D/JJ	.	.	.
24E\LL	.	8b'\	.
24G#\	.	.	.
24A\JJ	.	.	.
24B\LL	.	8a'\J	.
24c#\	.	.	.
24d\JJ	.	.	.
=318	=318	=318	=318
8e'\L	.	8g#/	.
8d'\	.	8r	.
8c#'\	.	4r	.
8B'\J	.	.	.
=319	=319	=319	=319
24AAA/LL	.	8A/	.
24CC#/	.	.	.
24DD/JJ	.	.	.
24EE/LL	.	8r	.
24FF#/	.	.	.
24GG#/JJ	.	.	.
24AA/LL	.	4r	.
24C#/	.	.	.
24D/JJ	.	.	.
24E\LL	.	.	.
24F#\	.	.	.
24G#\JJ	.	.	.
=320	=320	=320	=320
8A'\L	.	2r	.
8G#'\	.	.	.
8F#'\	.	.	.
8E'\J	.	.	.
=321	=321	=321	=321
8D'/L	.	24e/LL	.
.	.	24g#/	.
.	.	24a/JJ	.
8C#'/	.	24b\LL	.
.	.	24cc#\	.
.	.	24dd\JJ	.
8BB'/	.	24ee\LL	.
.	.	24gg#\	.
.	.	24aa\JJ	.
8AA'/J	.	24bb\LL	.
.	.	24ccc#\	.
.	.	24ddd\JJ	.
=322	=322	=322	=322
8GG#'/L	.	8eee'\L	ff
8FF#'/	.	8ddd'\	.
8EE'/	.	8ccc#'\	.
8DD'/J	.	8bb'\J	.
=323	=323	=323	=323
[2CC#/	.	8aa'\L	.
.	.	8gg#'\	.
.	.	8ff#'\	.
.	.	8ee'\J	.
=324	=324	=324	=324
2CC#/]	.	8dd'\L	.
.	.	8cc#'\	.
.	.	8b'\	.
.	.	8a'\J	.
=325	=325	=325	=325
2DD/	.	8g#'/L	.
.	.	8f#'/	.
.	.	8e'/	.
.	.	8d'/J	.
=326	=326	=326	=326
2EE/	.	8c#'/L	.
.	.	8B'/	.
.	.	8A'/	.
.	.	8G#'/J	.
*	*	*clefF4	*clefF4
=327	=327	=327	=327
*	*	*^	*
[2AAA\	.	2A/	(8AA\L	p
.	.	.	8BB\	.
.	.	.	8C#\	.
.	.	.	8D\J	.
=328	=328	=328	=328	=328
2AAA/]	.	2d/	8E\L	.
.	.	.	8F#\	.
.	.	.	8Gn\	.
.	.	.	8G#\J)	.
*	*	*v	*v	*
=329	=329	=329	=329
*^	*	*	*
(8AAA/L	[2AAA\	.	2E\ 2A\ 2c#\	.
8BBB/	.	.	.	.
8CC#/	.	.	.	.
8DD/J	.	.	.	.
=330	=330	=330	=330	=330
8EE/L	2AAA\]	.	2D\ 2E\ 2B\	.
8FF#/	.	.	.	.
8GGn/	.	.	.	.
8GG#/J)	.	.	.	.
*v	*v	*	*	*
=331	=331	=331	=331
*	*	*^	*
[2AAA/ 2AA/	.	2A/	(8C#\L	.
.	.	.	8BB\	.
.	.	.	8C#\	.
.	.	.	8D\J	.
=332	=332	=332	=332	=332
*^	*	*	*	*
4GG#/	2AAA\]	.	2d/	8E\L	.
.	.	.	.	8F#\	.
4BB/	.	.	.	8Gn\	.
.	.	.	.	8G#\J)	.
*	*	*	*v	*v	*
=333	=333	=333	=333	=333
(8AAA/L	[2AAA\	.	2E\ 2A\ 2c#\	.
8BBB/	.	.	.	.
8CC#/	.	.	.	.
8DD/J	.	.	.	.
=334	=334	=334	=334	=334
8EE/L	2AAA\]	.	2D\ 2E\ 2B\	.
8FF#/	.	.	.	.
8GGn/	.	.	.	.
8GG#/J)	.	.	.	.
*v	*v	*	*	*
=335	=335	=335	=335
8AAA/ 8AA/L	.	4C#\ 4E\ 4A\	pp
8FF#'/	.	.	.
8EE'/	.	4r	.
8DD'/J	.	.	.
=336	=336	=336	=336
8CC#'/L	.	4C#\ 4E\ 4A\	.
8DD'/	.	.	.
8CC#'/	.	4C#\ 4E\ 4A\	.
8BBB'/J	.	.	.
=337	=337	=337	=337
4AAA/	.	4C#\ 4E\ 4A\	.
4r	.	4r	.
=338	=338	=338	=338
4AAA/	.	4C#\ 4E\	pp
4r	.	4r	.
=339	=339	=339	=339
4AAA/	.	4AA/ 4C#/	.
4r	.	4r	.
=340	=340	=340	=340
4r;	.	4r;	.
8r	.	8r	.
==:|!	==:|!	==:|!	==:|!
*-	*-	*-	*-
!!!ENC: Craig Stuart Sapp
!!!END: 2004/06/30/
!!!ONB: Not proof-read yet
!!!hum2abc: --spacing 1.7
